src/topics/icons/kissmetrics.svg

<svg height="256" preserveAspectRatio="xMidYMid" viewBox="0 0 256 256" width="256" xmlns="http://www.w3.org/2000/svg"><path d="m108.707989 105.500655c-1.849775-5.8589426-2.806418-12.0711679-2.806418-18.5652258.071451-34.8837291 28.270587-63.0788962 63.134469-63.1662246 34.863882.0873284 63.094774 28.2983734 63.138438 63.1662246v134.1999448c-.015877 6.160622-4.985658 11.162158-11.158188 11.162158h-134.199945c-34.8837291-.059542-63.0669878-28.24677-63.1384383-63.138438.0714505-34.863882 28.2547092-63.05111 63.1384383-63.122561 6.4900884 0 12.7102527.948705 18.577134 2.758784l4.791154 1.484583zm60.328051-105.38157081c-46.355506 0-84.3711494 36.53899941-86.6972606 82.33877941-45.8037495 2.3261112-82.3387794 40.3298464-82.3387794 86.7012304 0 47.867875 38.9325916 86.816345 86.816345 86.816345l133.791089.027786.408856-.027786c19.220188 0 34.863882-15.603999 34.863882-34.840065v-134.1999448c0-47.863906-38.964348-86.81634501-86.844132-86.81634501z" fill="#1f201e"/><path d="m134.08483 61.0028618h38.440377v161.5019802h-38.440377z" fill="#e57535"/><path d="m84.7363411 142.893091v79.583965c.8296199.027786 1.6989345.027786 2.5404628.027786h35.9277001v-79.611751z" fill="#a7b539"/><path d="m35.3878522 177.117887h-.889162c.1905348 2.091913.3771 3.374052.889162 5.477873 0 0 .0555726.07542.0555726.103206 4.9578719 18.640646 19.7282811 33.280062 38.4244991 38.134728v-43.715807z" fill="#dc3e37"/><path d="m183.373777 222.576293h30.592729c4.390237 0 7.891312-3.512984 7.891312-7.871465v-92.262462h-38.484041z" fill="#2bacd7"/></svg>

<?xml version="1.0" encoding="UTF-8" standalone="no"?>
<svg width="256px" height="256px" viewBox="0 0 256 256" version="1.1" xmlns="http://www.w3.org/2000/svg" xmlns:xlink="http://www.w3.org/1999/xlink" preserveAspectRatio="xMidYMid">
	<g>
		<path d="M108.707989,105.500655 C106.858214,99.6417124 105.901571,93.4294871 105.901571,86.9354292 C105.973022,52.0517001 134.172158,23.856533 169.03604,23.7692046 C203.899922,23.856533 232.130814,52.067578 232.174478,86.9354292 L232.174478,221.135374 C232.158601,227.295996 227.18882,232.297532 221.01629,232.297532 L86.816345,232.297532 C51.9326159,232.23799 23.7493572,204.050762 23.6779067,169.159094 C23.7493572,134.295212 51.9326159,106.107984 86.816345,106.036533 C93.3064334,106.036533 99.5265977,106.985238 105.393479,108.795317 L110.184633,110.2799 L108.707989,105.500655 L108.707989,105.500655 Z M169.03604,0.119084191 C122.680534,0.119084191 84.6648906,36.6580836 82.3387794,82.4578636 C36.5350299,84.7839748 0,122.78771 0,169.159094 C0,217.026969 38.9325916,255.975439 86.816345,255.975439 L220.607434,256.003225 L221.01629,255.975439 C240.236478,255.975439 255.880172,240.37144 255.880172,221.135374 L255.880172,86.9354292 C255.880172,39.0715232 216.915824,0.119084191 169.03604,0.119084191 L169.03604,0.119084191 Z" fill="#1F201E"></path>
		<path d="M134.08483,61.0028618 L172.525207,61.0028618 L172.525207,222.504842 L134.08483,222.504842 L134.08483,61.0028618 Z" fill="#E57535"></path>
		<path d="M84.7363411,142.893091 L84.7363411,222.477056 C85.565961,222.504842 86.4352756,222.504842 87.2768039,222.504842 L123.204504,222.504842 L123.204504,142.893091 L84.7363411,142.893091" fill="#A7B539"></path>
		<path d="M35.3878522,177.117887 L34.4986902,177.117887 C34.689225,179.2098 34.8757902,180.491939 35.3878522,182.59576 C35.3878522,182.59576 35.4434248,182.67118 35.4434248,182.698966 C40.4012967,201.339612 55.1717059,215.979028 73.8679239,220.833694 L73.8679239,177.117887 L35.3878522,177.117887" fill="#DC3E37"></path>
		<path d="M183.373777,222.576293 L213.966506,222.576293 C218.356743,222.576293 221.857818,219.063309 221.857818,214.704828 L221.857818,122.442366 L183.373777,122.442366 L183.373777,222.576293" fill="#2BACD7"></path>
	</g>
</svg>
